images/29645.svg

<?xml version="1.0" encoding="UTF-8"?>
<svg xmlns="http://www.w3.org/2000/svg" xmlns:xlink="http://www.w3.org/1999/xlink" width="300pt" height="300pt" viewBox="0 0 300 300" version="1.1">
<defs>
<g>
<symbol overflow="visible" id="glyph0-0">
<path style="stroke:none;" d="M 0.546875 1.9375 L 0.546875 -7.75 L 6.046875 -7.75 L 6.046875 1.9375 Z M 1.171875 1.328125 L 5.4375 1.328125 L 5.4375 -7.140625 L 1.171875 -7.140625 Z M 1.171875 1.328125 "/>
</symbol>
<symbol overflow="visible" id="glyph0-1">
<path style="stroke:none;" d="M 2.171875 -3.828125 L 2.171875 -0.890625 L 3.90625 -0.890625 C 4.488281 -0.890625 4.921875 -1.007812 5.203125 -1.25 C 5.484375 -1.488281 5.625 -1.859375 5.625 -2.359375 C 5.625 -2.859375 5.484375 -3.226562 5.203125 -3.46875 C 4.921875 -3.707031 4.488281 -3.828125 3.90625 -3.828125 Z M 2.171875 -7.125 L 2.171875 -4.703125 L 3.765625 -4.703125 C 4.296875 -4.703125 4.691406 -4.800781 4.953125 -5 C 5.210938 -5.207031 5.34375 -5.515625 5.34375 -5.921875 C 5.34375 -6.328125 5.210938 -6.628906 4.953125 -6.828125 C 4.691406 -7.023438 4.296875 -7.125 3.765625 -7.125 Z M 1.078125 -8.015625 L 3.84375 -8.015625 C 4.675781 -8.015625 5.316406 -7.84375 5.765625 -7.5 C 6.210938 -7.15625 6.4375 -6.664062 6.4375 -6.03125 C 6.4375 -5.539062 6.320312 -5.148438 6.09375 -4.859375 C 5.863281 -4.578125 5.523438 -4.398438 5.078125 -4.328125 C 5.609375 -4.210938 6.019531 -3.972656 6.3125 -3.609375 C 6.613281 -3.242188 6.765625 -2.789062 6.765625 -2.25 C 6.765625 -1.53125 6.519531 -0.972656 6.03125 -0.578125 C 5.550781 -0.191406 4.859375 0 3.953125 0 L 1.078125 0 Z M 1.078125 -8.015625 "/>
</symbol>
<symbol overflow="visible" id="glyph0-2">
<path style="stroke:none;" d="M 4.515625 -5.09375 C 4.410156 -5.15625 4.289062 -5.203125 4.15625 -5.234375 C 4.03125 -5.265625 3.890625 -5.28125 3.734375 -5.28125 C 3.171875 -5.28125 2.738281 -5.097656 2.4375 -4.734375 C 2.144531 -4.367188 2 -3.847656 2 -3.171875 L 2 0 L 1 0 L 1 -6.015625 L 2 -6.015625 L 2 -5.078125 C 2.195312 -5.441406 2.460938 -5.710938 2.796875 -5.890625 C 3.128906 -6.066406 3.535156 -6.15625 4.015625 -6.15625 C 4.085938 -6.15625 4.160156 -6.148438 4.234375 -6.140625 C 4.316406 -6.140625 4.410156 -6.128906 4.515625 -6.109375 Z M 4.515625 -5.09375 "/>
</symbol>
<symbol overflow="visible" id="glyph0-3">
<path style="stroke:none;" d="M 1.078125 -8.015625 L 5.6875 -8.015625 L 5.6875 -7.109375 L 2.171875 -7.109375 L 2.171875 -4.75 L 5.34375 -4.75 L 5.34375 -3.828125 L 2.171875 -3.828125 L 2.171875 0 L 1.078125 0 Z M 1.078125 -8.015625 "/>
</symbol>
<symbol overflow="visible" id="glyph0-4">
<path style="stroke:none;" d="M 1.078125 -8.015625 L 2.546875 -8.015625 L 6.09375 -1.3125 L 6.09375 -8.015625 L 7.15625 -8.015625 L 7.15625 0 L 5.6875 0 L 2.125 -6.703125 L 2.125 0 L 1.078125 0 Z M 1.078125 -8.015625 "/>
</symbol>
<symbol overflow="visible" id="glyph0-5">
<path style="stroke:none;" d="M 4.328125 -7.28125 C 3.546875 -7.28125 2.921875 -6.984375 2.453125 -6.390625 C 1.992188 -5.804688 1.765625 -5.007812 1.765625 -4 C 1.765625 -2.988281 1.992188 -2.1875 2.453125 -1.59375 C 2.921875 -1.007812 3.546875 -0.71875 4.328125 -0.71875 C 5.117188 -0.71875 5.742188 -1.007812 6.203125 -1.59375 C 6.660156 -2.1875 6.890625 -2.988281 6.890625 -4 C 6.890625 -5.007812 6.660156 -5.804688 6.203125 -6.390625 C 5.742188 -6.984375 5.117188 -7.28125 4.328125 -7.28125 Z M 4.328125 -8.171875 C 5.453125 -8.171875 6.351562 -7.789062 7.03125 -7.03125 C 7.707031 -6.28125 8.046875 -5.269531 8.046875 -4 C 8.046875 -2.738281 7.707031 -1.726562 7.03125 -0.96875 C 6.351562 -0.21875 5.453125 0.15625 4.328125 0.15625 C 3.203125 0.15625 2.300781 -0.21875 1.625 -0.96875 C 0.957031 -1.71875 0.625 -2.726562 0.625 -4 C 0.625 -5.269531 0.957031 -6.28125 1.625 -7.03125 C 2.300781 -7.789062 3.203125 -8.171875 4.328125 -8.171875 Z M 4.328125 -8.171875 "/>
</symbol>
</g>
</defs>
<g id="surface24309">
<rect x="0" y="0" width="300" height="300" style="fill:rgb(100%,100%,100%);fill-opacity:1;stroke:none;"/>
<path style="fill:none;stroke-width:1.2;stroke-linecap:butt;stroke-linejoin:miter;stroke:rgb(50%,30%,10%);stroke-opacity:1;stroke-miterlimit:10;" d="M 35.25 163.828125 L 47.949219 165.273438 "/>
<path style="fill:none;stroke-width:1.2;stroke-linecap:butt;stroke-linejoin:miter;stroke:rgb(0%,0%,0%);stroke-opacity:1;stroke-miterlimit:10;" d="M 47.949219 165.273438 L 60.644531 166.71875 "/>
<path style=" stroke:none;fill-rule:nonzero;fill:rgb(100%,100%,100%);fill-opacity:1;" d="M 23.25 157.328125 L 35.25 157.328125 L 35.25 170.328125 L 23.25 170.328125 Z M 23.25 157.328125 "/>
<g style="fill:rgb(50%,30%,10%);fill-opacity:1;">
  <use xlink:href="#glyph0-1" x="23.25" y="167.229492"/>
  <use xlink:href="#glyph0-2" x="30.571289" y="167.229492"/>
</g>
<path style="fill:none;stroke-width:1.2;stroke-linecap:butt;stroke-linejoin:miter;stroke:rgb(0%,0%,0%);stroke-opacity:1;stroke-miterlimit:10;" d="M 60.644531 166.71875 L 75.847656 146.171875 "/>
<path style="fill:none;stroke-width:1.2;stroke-linecap:butt;stroke-linejoin:miter;stroke:rgb(0%,0%,0%);stroke-opacity:1;stroke-miterlimit:10;" d="M 67 168.242188 L 79.160156 151.804688 "/>
<path style="fill:none;stroke-width:1.2;stroke-linecap:butt;stroke-linejoin:miter;stroke:rgb(0%,0%,0%);stroke-opacity:1;stroke-miterlimit:10;" d="M 70.839844 190.15625 L 60.644531 166.71875 "/>
<path style="fill:none;stroke-width:1.2;stroke-linecap:butt;stroke-linejoin:miter;stroke:rgb(0%,0%,0%);stroke-opacity:1;stroke-miterlimit:10;" d="M 75.847656 146.171875 L 101.242188 149.0625 "/>
<path style="fill:none;stroke-width:1.2;stroke-linecap:butt;stroke-linejoin:miter;stroke:rgb(0%,0%,0%);stroke-opacity:1;stroke-miterlimit:10;" d="M 101.242188 149.0625 L 111.4375 172.5 "/>
<path style="fill:none;stroke-width:1.2;stroke-linecap:butt;stroke-linejoin:miter;stroke:rgb(0%,0%,0%);stroke-opacity:1;stroke-miterlimit:10;" d="M 96.746094 153.804688 L 104.902344 172.554688 "/>
<path style="fill:none;stroke-width:1.2;stroke-linecap:butt;stroke-linejoin:miter;stroke:rgb(0%,0%,0%);stroke-opacity:1;stroke-miterlimit:10;" d="M 101.242188 149.0625 L 116.445312 128.515625 "/>
<path style="fill:none;stroke-width:1.2;stroke-linecap:butt;stroke-linejoin:miter;stroke:rgb(0%,0%,0%);stroke-opacity:1;stroke-miterlimit:10;" d="M 111.4375 172.5 L 96.234375 193.050781 "/>
<path style="fill:none;stroke-width:1.2;stroke-linecap:butt;stroke-linejoin:miter;stroke:rgb(0%,0%,0%);stroke-opacity:1;stroke-miterlimit:10;" d="M 96.234375 193.050781 L 70.839844 190.15625 "/>
<path style="fill:none;stroke-width:1.2;stroke-linecap:butt;stroke-linejoin:miter;stroke:rgb(0%,0%,0%);stroke-opacity:1;stroke-miterlimit:10;" d="M 94.375 186.785156 L 74.058594 184.472656 "/>
<path style="fill:none;stroke-width:1.2;stroke-linecap:butt;stroke-linejoin:miter;stroke:rgb(0%,0%,0%);stroke-opacity:1;stroke-miterlimit:10;" d="M 70.839844 190.15625 L 63.238281 200.429688 "/>
<path style="fill:none;stroke-width:1.2;stroke-linecap:butt;stroke-linejoin:miter;stroke:rgb(20%,80%,80%);stroke-opacity:1;stroke-miterlimit:10;" d="M 63.238281 200.429688 L 55.636719 210.707031 "/>
<path style=" stroke:none;fill-rule:nonzero;fill:rgb(100%,100%,100%);fill-opacity:1;" d="M 48.636719 204.207031 L 55.636719 204.207031 L 55.636719 217.207031 L 48.636719 217.207031 Z M 48.636719 204.207031 "/>
<g style="fill:rgb(20%,80%,80%);fill-opacity:1;">
  <use xlink:href="#glyph0-3" x="48.636719" y="214.108398"/>
</g>
<path style="fill:none;stroke-width:1.2;stroke-linecap:butt;stroke-linejoin:miter;stroke:rgb(0%,0%,0%);stroke-opacity:1;stroke-miterlimit:10;" d="M 116.445312 128.515625 L 112.601562 116.328125 "/>
<path style="fill:none;stroke-width:1.2;stroke-linecap:butt;stroke-linejoin:miter;stroke:rgb(0%,0%,100%);stroke-opacity:1;stroke-miterlimit:10;" d="M 112.601562 116.328125 L 108.757812 104.140625 "/>
<path style="fill:none;stroke-width:1.2;stroke-linecap:butt;stroke-linejoin:miter;stroke:rgb(0%,0%,0%);stroke-opacity:1;stroke-miterlimit:10;" d="M 142.003906 128.734375 L 116.445312 128.515625 "/>
<path style="fill:none;stroke-width:1.2;stroke-linecap:butt;stroke-linejoin:miter;stroke:rgb(0%,0%,0%);stroke-opacity:1;stroke-miterlimit:10;" d="M 139.5 122.699219 L 119.050781 122.523438 "/>
<path style="fill:none;stroke-width:1.2;stroke-linecap:butt;stroke-linejoin:miter;stroke:rgb(0%,0%,100%);stroke-opacity:1;stroke-miterlimit:10;" d="M 108.757812 104.140625 L 119.160156 96.714844 "/>
<path style="fill:none;stroke-width:1.2;stroke-linecap:butt;stroke-linejoin:miter;stroke:rgb(0%,0%,0%);stroke-opacity:1;stroke-miterlimit:10;" d="M 119.160156 96.714844 L 129.5625 89.292969 "/>
<path style="fill:none;stroke-width:1.2;stroke-linecap:butt;stroke-linejoin:miter;stroke:rgb(0%,0%,100%);stroke-opacity:1;stroke-miterlimit:10;" d="M 114.332031 107.550781 L 122.652344 101.613281 "/>
<path style="fill:none;stroke-width:1.2;stroke-linecap:butt;stroke-linejoin:miter;stroke:rgb(0%,0%,0%);stroke-opacity:1;stroke-miterlimit:10;" d="M 122.652344 101.613281 L 130.976562 95.675781 "/>
<path style=" stroke:none;fill-rule:nonzero;fill:rgb(100%,100%,100%);fill-opacity:1;" d="M 104.757812 97.640625 L 112.757812 97.640625 L 112.757812 110.640625 L 104.757812 110.640625 Z M 104.757812 97.640625 "/>
<g style="fill:rgb(0%,0%,100%);fill-opacity:1;">
  <use xlink:href="#glyph0-4" x="104.757812" y="107.541992"/>
</g>
<path style="fill:none;stroke-width:1.2;stroke-linecap:butt;stroke-linejoin:miter;stroke:rgb(0%,0%,0%);stroke-opacity:1;stroke-miterlimit:10;" d="M 129.5625 89.292969 L 139.835938 96.894531 "/>
<path style="fill:none;stroke-width:1.2;stroke-linecap:butt;stroke-linejoin:miter;stroke:rgb(100%,0%,0%);stroke-opacity:1;stroke-miterlimit:10;" d="M 139.835938 96.894531 L 150.113281 104.496094 "/>
<path style="fill:none;stroke-width:1.2;stroke-linecap:butt;stroke-linejoin:miter;stroke:rgb(100%,0%,0%);stroke-opacity:1;stroke-miterlimit:10;" d="M 150.113281 104.496094 L 146.058594 116.617188 "/>
<path style="fill:none;stroke-width:1.2;stroke-linecap:butt;stroke-linejoin:miter;stroke:rgb(0%,0%,0%);stroke-opacity:1;stroke-miterlimit:10;" d="M 146.058594 116.617188 L 142.003906 128.734375 "/>
<path style=" stroke:none;fill-rule:nonzero;fill:rgb(100%,100%,100%);fill-opacity:1;" d="M 146.113281 97.996094 L 155.113281 97.996094 L 155.113281 110.996094 L 146.113281 110.996094 Z M 146.113281 97.996094 "/>
<g style="fill:rgb(100%,0%,0%);fill-opacity:1;">
  <use xlink:href="#glyph0-5" x="146.113281" y="107.897461"/>
</g>
<path style="fill:none;stroke-width:1.2;stroke-linecap:butt;stroke-linejoin:miter;stroke:rgb(0%,0%,0%);stroke-opacity:1;stroke-miterlimit:10;" d="M 142.003906 128.734375 L 156.847656 149.542969 "/>
<path style="fill:none;stroke-width:1.2;stroke-linecap:butt;stroke-linejoin:miter;stroke:rgb(0%,0%,0%);stroke-opacity:1;stroke-miterlimit:10;" d="M 156.847656 149.542969 L 146.25 172.800781 "/>
<path style="fill:none;stroke-width:1.2;stroke-linecap:butt;stroke-linejoin:miter;stroke:rgb(0%,0%,0%);stroke-opacity:1;stroke-miterlimit:10;" d="M 156.847656 149.542969 L 182.289062 147.089844 "/>
<path style="fill:none;stroke-width:1.2;stroke-linecap:butt;stroke-linejoin:miter;stroke:rgb(0%,0%,0%);stroke-opacity:1;stroke-miterlimit:10;" d="M 159.96875 155.285156 L 180.324219 153.324219 "/>
<path style="fill:none;stroke-width:1.2;stroke-linecap:butt;stroke-linejoin:miter;stroke:rgb(0%,0%,0%);stroke-opacity:1;stroke-miterlimit:10;" d="M 146.25 172.800781 L 161.09375 193.609375 "/>
<path style="fill:none;stroke-width:1.2;stroke-linecap:butt;stroke-linejoin:miter;stroke:rgb(0%,0%,0%);stroke-opacity:1;stroke-miterlimit:10;" d="M 152.628906 171.390625 L 164.507812 188.035156 "/>
<path style="fill:none;stroke-width:1.2;stroke-linecap:butt;stroke-linejoin:miter;stroke:rgb(0%,0%,0%);stroke-opacity:1;stroke-miterlimit:10;" d="M 161.09375 193.609375 L 186.535156 191.15625 "/>
<path style="fill:none;stroke-width:1.2;stroke-linecap:butt;stroke-linejoin:miter;stroke:rgb(0%,0%,0%);stroke-opacity:1;stroke-miterlimit:10;" d="M 186.535156 191.15625 L 191.835938 179.527344 "/>
<path style="fill:none;stroke-width:1.2;stroke-linecap:butt;stroke-linejoin:miter;stroke:rgb(0%,0%,100%);stroke-opacity:1;stroke-miterlimit:10;" d="M 191.835938 179.527344 L 197.132812 167.898438 "/>
<path style="fill:none;stroke-width:1.2;stroke-linecap:butt;stroke-linejoin:miter;stroke:rgb(0%,0%,100%);stroke-opacity:1;stroke-miterlimit:10;" d="M 205.382812 208.425781 L 195.960938 199.789062 "/>
<path style="fill:none;stroke-width:1.2;stroke-linecap:butt;stroke-linejoin:miter;stroke:rgb(0%,0%,0%);stroke-opacity:1;stroke-miterlimit:10;" d="M 195.960938 199.789062 L 186.535156 191.15625 "/>
<path style="fill:none;stroke-width:1.2;stroke-linecap:butt;stroke-linejoin:miter;stroke:rgb(0%,0%,100%);stroke-opacity:1;stroke-miterlimit:10;" d="M 207.558594 202.261719 L 200.023438 195.355469 "/>
<path style="fill:none;stroke-width:1.2;stroke-linecap:butt;stroke-linejoin:miter;stroke:rgb(0%,0%,0%);stroke-opacity:1;stroke-miterlimit:10;" d="M 200.023438 195.355469 L 192.484375 188.449219 "/>
<path style="fill:none;stroke-width:1.2;stroke-linecap:butt;stroke-linejoin:miter;stroke:rgb(0%,0%,100%);stroke-opacity:1;stroke-miterlimit:10;" d="M 197.132812 167.898438 L 189.710938 157.496094 "/>
<path style="fill:none;stroke-width:1.2;stroke-linecap:butt;stroke-linejoin:miter;stroke:rgb(0%,0%,0%);stroke-opacity:1;stroke-miterlimit:10;" d="M 189.710938 157.496094 L 182.289062 147.089844 "/>
<path style="fill:none;stroke-width:1.2;stroke-linecap:butt;stroke-linejoin:miter;stroke:rgb(0%,0%,100%);stroke-opacity:1;stroke-miterlimit:10;" d="M 197.132812 167.898438 L 209.832031 169.34375 "/>
<path style="fill:none;stroke-width:1.2;stroke-linecap:butt;stroke-linejoin:miter;stroke:rgb(0%,0%,0%);stroke-opacity:1;stroke-miterlimit:10;" d="M 209.832031 169.34375 L 222.53125 170.789062 "/>
<path style=" stroke:none;fill-rule:nonzero;fill:rgb(100%,100%,100%);fill-opacity:1;" d="M 193.132812 161.398438 L 201.132812 161.398438 L 201.132812 174.398438 L 193.132812 174.398438 Z M 193.132812 161.398438 "/>
<g style="fill:rgb(0%,0%,100%);fill-opacity:1;">
  <use xlink:href="#glyph0-4" x="193.132812" y="171.299805"/>
</g>
<path style="fill:none;stroke-width:1.2;stroke-linecap:butt;stroke-linejoin:miter;stroke:rgb(0%,0%,0%);stroke-opacity:1;stroke-miterlimit:10;" d="M 222.53125 170.789062 L 225.078125 183.3125 "/>
<path style="fill:none;stroke-width:1.2;stroke-linecap:butt;stroke-linejoin:miter;stroke:rgb(0%,0%,100%);stroke-opacity:1;stroke-miterlimit:10;" d="M 225.078125 183.3125 L 227.628906 195.835938 "/>
<path style="fill:none;stroke-width:1.2;stroke-linecap:butt;stroke-linejoin:miter;stroke:rgb(0%,0%,0%);stroke-opacity:1;stroke-miterlimit:10;" d="M 217.144531 174.492188 L 219.183594 184.511719 "/>
<path style="fill:none;stroke-width:1.2;stroke-linecap:butt;stroke-linejoin:miter;stroke:rgb(0%,0%,100%);stroke-opacity:1;stroke-miterlimit:10;" d="M 219.183594 184.511719 L 221.222656 194.53125 "/>
<path style="fill:none;stroke-width:1.2;stroke-linecap:butt;stroke-linejoin:miter;stroke:rgb(0%,0%,0%);stroke-opacity:1;stroke-miterlimit:10;" d="M 222.53125 170.789062 L 239.796875 151.945312 "/>
<path style="fill:none;stroke-width:1.2;stroke-linecap:butt;stroke-linejoin:miter;stroke:rgb(0%,0%,100%);stroke-opacity:1;stroke-miterlimit:10;" d="M 227.628906 195.835938 L 205.382812 208.425781 "/>
<path style=" stroke:none;fill-rule:nonzero;fill:rgb(100%,100%,100%);fill-opacity:1;" d="M 223.628906 189.335938 L 231.628906 189.335938 L 231.628906 202.335938 L 223.628906 202.335938 Z M 223.628906 189.335938 "/>
<g style="fill:rgb(0%,0%,100%);fill-opacity:1;">
  <use xlink:href="#glyph0-4" x="223.628906" y="199.237305"/>
</g>
<path style=" stroke:none;fill-rule:nonzero;fill:rgb(100%,100%,100%);fill-opacity:1;" d="M 201.382812 201.925781 L 209.382812 201.925781 L 209.382812 214.925781 L 201.382812 214.925781 Z M 201.382812 201.925781 "/>
<g style="fill:rgb(0%,0%,100%);fill-opacity:1;">
  <use xlink:href="#glyph0-4" x="201.382812" y="211.827148"/>
</g>
<path style="fill:none;stroke-width:1.2;stroke-linecap:butt;stroke-linejoin:miter;stroke:rgb(0%,0%,0%);stroke-opacity:1;stroke-miterlimit:10;" d="M 239.796875 151.945312 L 264.75 157.472656 "/>
<path style="fill:none;stroke-width:1.2;stroke-linecap:butt;stroke-linejoin:miter;stroke:rgb(0%,0%,0%);stroke-opacity:1;stroke-miterlimit:10;" d="M 239.796875 151.945312 L 232.109375 127.566406 "/>
</g>
</svg>

<svg xmlns="http://www.w3.org/2000/svg" xmlns:xlink="http://www.w3.org/1999/xlink" width="300pt" height="300pt" viewBox="0 0 300 300"><defs><symbol overflow="visible"><path d="M.547 1.938V-7.75h5.5v9.688zm.625-.61h4.266v-8.47H1.171zm0 0"/></symbol><symbol overflow="visible" id="a"><path d="M2.172-3.828V-.89h1.734c.582 0 1.016-.118 1.297-.36.28-.238.422-.61.422-1.11 0-.5-.14-.867-.422-1.11-.28-.237-.715-.358-1.297-.358zm0-3.297v2.422h1.594c.53 0 .925-.098 1.187-.297.258-.207.39-.516.39-.922s-.132-.707-.39-.906c-.262-.195-.656-.297-1.187-.297zm-1.094-.89h2.766c.832 0 1.472.17 1.922.515.445.344.67.836.67 1.47.002.49-.116.882-.342 1.17-.23.282-.57.462-1.016.532.53.117.942.355 1.234.72.3.366.454.82.454 1.358 0 .72-.246 1.277-.735 1.672C5.55-.19 4.86 0 3.954 0H1.078zm0 0"/></symbol><symbol overflow="visible" id="b"><path d="M4.516-5.094c-.106-.062-.227-.11-.36-.14-.125-.032-.265-.047-.422-.047-.562 0-.996.182-1.296.546C2.144-4.367 2-3.848 2-3.172V0H1v-6.016h1v.938c.195-.363.46-.633.797-.813.332-.176.738-.266 1.22-.266.07 0 .143.008.217.015.082 0 .176.01.282.03zm0 0"/></symbol><symbol overflow="visible" id="c"><path d="M1.078-8.016h4.61v.907H2.171v2.36h3.172v.922H2.172V0H1.078zm0 0"/></symbol><symbol overflow="visible" id="d"><path d="M1.078-8.016h1.47l3.546 6.704v-6.704h1.062V0H5.688L2.124-6.703V0H1.078zm0 0"/></symbol><symbol overflow="visible" id="e"><path d="M4.328-7.28c-.78 0-1.406.296-1.875.89-.46.585-.687 1.382-.687 2.39 0 1.012.226 1.813.687 2.406.47.586 1.094.875 1.875.875.79 0 1.414-.288 1.875-.874.457-.593.688-1.394.688-2.406 0-1.008-.23-1.805-.687-2.39-.46-.594-1.086-.89-1.875-.89zm0-.892c1.125 0 2.024.383 2.703 1.14C7.708-6.28 8.048-5.27 8.048-4c0 1.262-.34 2.273-1.016 3.03C6.353-.22 5.454.157 4.33.157S2.3-.22 1.625-.97c-.668-.75-1-1.757-1-3.03 0-1.27.332-2.28 1-3.03.676-.76 1.578-1.142 2.703-1.142zm0 0"/></symbol></defs><g><path fill="#fff" d="M0 0h300v300H0z"/><path d="M35.25 163.828l12.7 1.445" stroke-width="1.2" stroke="#7f4d1a" stroke-miterlimit="10" fill="none"/><path d="M47.95 165.273l12.695 1.446" stroke-width="1.2" stroke="#000" stroke-miterlimit="10" fill="none"/><path d="M23.25 157.328h12v13h-12zm0 0" fill="#fff"/><g fill="#7f4d1a"><use xlink:href="#a" x="23.25" y="167.229"/><use xlink:href="#b" x="30.571" y="167.229"/></g><path d="M60.645 166.72l15.203-20.548M67 168.242l12.16-16.437M70.84 190.156L60.645 166.72M75.848 146.172l25.394 2.89M101.242 149.063l10.195 23.437M96.746 153.805l8.156 18.75M101.242 149.063l15.203-20.547M111.438 172.5l-15.204 20.55M96.234 193.05l-25.394-2.894M94.375 186.785l-20.316-2.312M70.84 190.156l-7.602 10.274" stroke-width="1.2" stroke="#000" stroke-miterlimit="10" fill="none"/><path d="M63.238 200.43l-7.6 10.277" stroke-width="1.2" stroke="#3cc" stroke-miterlimit="10" fill="none"/><path d="M48.637 204.207h7v13h-7zm0 0" fill="#fff"/><use xlink:href="#c" x="48.637" y="214.108" fill="#3cc"/><path d="M116.445 128.516l-3.843-12.188" stroke-width="1.2" stroke="#000" stroke-miterlimit="10" fill="none"/><path d="M112.602 116.328l-3.844-12.187" stroke-width="1.2" stroke="#00f" stroke-miterlimit="10" fill="none"/><path d="M142.004 128.734l-25.56-.218M139.5 122.7l-20.45-.177" stroke-width="1.2" stroke="#000" stroke-miterlimit="10" fill="none"/><path d="M108.758 104.14l10.402-7.425" stroke-width="1.2" stroke="#00f" stroke-miterlimit="10" fill="none"/><path d="M119.16 96.715l10.403-7.422" stroke-width="1.2" stroke="#000" stroke-miterlimit="10" fill="none"/><path d="M114.332 107.55l8.32-5.937" stroke-width="1.2" stroke="#00f" stroke-miterlimit="10" fill="none"/><path d="M122.652 101.613l8.325-5.937" stroke-width="1.2" stroke="#000" stroke-miterlimit="10" fill="none"/><path d="M104.758 97.64h8v13h-8zm0 0" fill="#fff"/><use xlink:href="#d" x="104.758" y="107.542" fill="#00f"/><path d="M129.563 89.293l10.273 7.602" stroke-width="1.2" stroke="#000" stroke-miterlimit="10" fill="none"/><path d="M139.836 96.895l10.277 7.6M150.113 104.496l-4.054 12.12" stroke-width="1.2" stroke="#f00" stroke-miterlimit="10" fill="none"/><path d="M146.06 116.617l-4.056 12.117" stroke-width="1.2" stroke="#000" stroke-miterlimit="10" fill="none"/><path d="M146.113 97.996h9v13h-9zm0 0" fill="#fff"/><use xlink:href="#e" x="146.113" y="107.897" fill="#f00"/><path d="M142.004 128.734l14.844 20.81M156.848 149.543L146.25 172.8M156.848 149.543l25.44-2.453M159.97 155.285l20.354-1.96M146.25 172.8l14.844 20.81M152.63 171.39l11.878 16.645M161.094 193.61l25.44-2.454M186.535 191.156l5.3-11.63" stroke-width="1.2" stroke="#000" stroke-miterlimit="10" fill="none"/><path d="M191.836 179.527l5.297-11.63M205.383 208.426l-9.422-8.637" stroke-width="1.2" stroke="#00f" stroke-miterlimit="10" fill="none"/><path d="M195.96 199.79l-9.425-8.634" stroke-width="1.2" stroke="#000" stroke-miterlimit="10" fill="none"/><path d="M207.56 202.262l-7.537-6.907" stroke-width="1.2" stroke="#00f" stroke-miterlimit="10" fill="none"/><path d="M200.023 195.355l-7.54-6.906" stroke-width="1.2" stroke="#000" stroke-miterlimit="10" fill="none"/><path d="M197.133 167.898l-7.422-10.402" stroke-width="1.2" stroke="#00f" stroke-miterlimit="10" fill="none"/><path d="M189.71 157.496l-7.42-10.406" stroke-width="1.2" stroke="#000" stroke-miterlimit="10" fill="none"/><path d="M197.133 167.898l12.7 1.446" stroke-width="1.2" stroke="#00f" stroke-miterlimit="10" fill="none"/><path d="M209.832 169.344l12.7 1.445" stroke-width="1.2" stroke="#000" stroke-miterlimit="10" fill="none"/><path d="M193.133 161.398h8v13h-8zm0 0" fill="#fff"/><use xlink:href="#d" x="193.133" y="171.3" fill="#00f"/><path d="M222.53 170.79l2.548 12.523" stroke-width="1.2" stroke="#000" stroke-miterlimit="10" fill="none"/><path d="M225.078 183.313l2.55 12.523" stroke-width="1.2" stroke="#00f" stroke-miterlimit="10" fill="none"/><path d="M217.145 174.492l2.04 10.02" stroke-width="1.2" stroke="#000" stroke-miterlimit="10" fill="none"/><path d="M219.184 184.512l2.04 10.02" stroke-width="1.2" stroke="#00f" stroke-miterlimit="10" fill="none"/><path d="M222.53 170.79l17.267-18.845" stroke-width="1.2" stroke="#000" stroke-miterlimit="10" fill="none"/><path d="M227.63 195.836l-22.247 12.59" stroke-width="1.2" stroke="#00f" stroke-miterlimit="10" fill="none"/><path d="M223.63 189.336h8v13h-8zm0 0" fill="#fff"/><use xlink:href="#d" x="223.629" y="199.237" fill="#00f"/><path d="M201.383 201.926h8v13h-8zm0 0" fill="#fff"/><use xlink:href="#d" x="201.383" y="211.827" fill="#00f"/><path d="M239.797 151.945l24.953 5.528M239.797 151.945l-7.688-24.38" stroke-width="1.2" stroke="#000" stroke-miterlimit="10" fill="none"/></g></svg>
